flaticon/grooming/scissors.svg

<svg xmlns="http://www.w3.org/2000/svg" width="32" height="32" viewBox="0 0 24 24">
    <path d="M 10.683594 10.941406 C 10.523438 10.78125 10.28125 10.78125 10.125 10.941406 C 9.964844 11.101562 9.964844 11.339844 10.125 11.5 L 10.722656 12.101562 C 10.800781 12.179688 10.882812 12.21875 11 12.21875 C 11.082031 12.21875 11.203125 12.179688 11.28125 12.101562 C 11.441406 11.941406 11.441406 11.699219 11.28125 11.539062 Z M 10.683594 10.941406"/>
    <path d="M 22.382812 22.800781 C 21.265625 22.800781 20.386719 21.921875 20.386719 20.804688 C 20.386719 19.046875 18.949219 17.609375 17.191406 17.609375 C 16.917969 17.609375 16.65625 17.644531 16.402344 17.710938 L 12.640625 13.179688 C 12.621094 13.148438 12.601562 13.113281 12.589844 13.082031 C 12.96875 12.578125 14.320312 10.847656 19.109375 4.710938 C 20.027344 3.472656 20.664062 2.117188 21.066406 0.640625 L 21.144531 0.359375 L 20.707031 0.0390625 L 17.671875 1.796875 L 11.214844 9.511719 L 4.691406 1.71875 L 1.898438 0.121094 L 1.65625 0 L 1.21875 0.359375 L 1.296875 0.640625 C 1.695312 2.117188 2.375 3.472656 3.253906 4.710938 L 9.8125 13.101562 C 9.800781 13.132812 9.78125 13.160156 9.765625 13.179688 L 6 17.710938 C 5.746094 17.644531 5.484375 17.609375 5.210938 17.609375 C 3.453125 17.609375 2.015625 19.046875 2.015625 20.804688 C 2.015625 22.5625 3.453125 24 5.210938 24 C 6.96875 24 8.40625 22.5625 8.40625 20.804688 C 8.40625 20.175781 8.21875 19.585938 7.902344 19.089844 L 11.183594 14.855469 L 14.5 19.09375 C 14.183594 19.589844 13.996094 20.175781 13.996094 20.804688 C 13.996094 22.5625 15.433594 24 17.191406 24 C 18.410156 24 19.472656 23.308594 20.011719 22.296875 C 20.503906 23.082031 21.375 23.601562 22.382812 23.601562 C 22.582031 23.601562 22.78125 23.441406 22.78125 23.203125 C 22.78125 22.960938 22.621094 22.800781 22.382812 22.800781 Z M 18.191406 2.394531 L 20.027344 1.359375 C 19.667969 2.394531 19.148438 3.355469 18.507812 4.234375 C 18.46875 4.273438 14.554688 9.265625 12.757812 11.621094 C 12.753906 11.597656 12.75 11.574219 12.742188 11.550781 C 12.738281 11.53125 12.734375 11.511719 12.726562 11.492188 C 12.726562 11.480469 12.722656 11.472656 12.71875 11.460938 C 12.714844 11.449219 12.710938 11.433594 12.703125 11.421875 C 12.652344 11.277344 12.578125 11.144531 12.480469 11.023438 L 11.730469 10.128906 Z M 2.375 1.359375 L 4.171875 2.394531 L 11.839844 11.5 C 11.960938 11.699219 12 11.941406 11.878906 12.140625 C 11.601562 12.617188 11.640625 13.21875 12 13.65625 L 15.632812 18.011719 C 15.570312 18.046875 15.503906 18.09375 15.441406 18.136719 C 15.316406 18.21875 15.199219 18.308594 15.089844 18.40625 C 15.070312 18.421875 15.054688 18.433594 15.035156 18.449219 L 3.894531 4.234375 C 3.253906 3.355469 2.734375 2.394531 2.375 1.359375 Z M 5.210938 23.203125 C 3.894531 23.203125 2.816406 22.125 2.816406 20.804688 C 2.816406 19.488281 3.894531 18.410156 5.210938 18.410156 C 5.382812 18.410156 5.550781 18.429688 5.710938 18.464844 L 6.011719 18.570312 C 6.140625 18.605469 6.261719 18.652344 6.378906 18.714844 C 6.558594 18.816406 6.726562 18.941406 6.871094 19.082031 C 6.949219 19.160156 7.019531 19.242188 7.089844 19.328125 L 7.167969 19.425781 C 7.445312 19.816406 7.605469 20.292969 7.605469 20.804688 C 7.605469 22.125 6.527344 23.203125 5.210938 23.203125 Z M 10.683594 14.214844 L 7.382812 18.46875 C 7.203125 18.300781 7 18.152344 6.785156 18.03125 L 10.316406 13.746094 L 10.59375 14.097656 Z M 17.191406 23.203125 C 15.875 23.203125 14.796875 22.125 14.796875 20.804688 C 14.796875 20.292969 14.960938 19.816406 15.238281 19.425781 L 15.316406 19.328125 C 15.59375 18.96875 15.953125 18.730469 16.394531 18.570312 L 16.691406 18.464844 C 16.851562 18.429688 17.019531 18.410156 17.191406 18.410156 C 18.507812 18.410156 19.585938 19.488281 19.585938 20.804688 C 19.585938 22.125 18.507812 23.203125 17.191406 23.203125 Z M 17.191406 23.203125"/>
</svg>

<svg xmlns="http://www.w3.org/2000/svg" width="32" height="32" viewBox="0 0 24 24">
    <path d="M10.684 10.941a.385.385 0 0 0-.559 0 .385.385 0 0 0 0 .559l.598.602c.078.078.16.117.277.117.082 0 .203-.04.281-.117a.39.39 0 0 0 0-.563zm0 0"/>
    <path d="M22.383 22.8a1.977 1.977 0 0 1-1.996-1.995 3.204 3.204 0 0 0-3.196-3.196c-.273 0-.535.036-.789.102l-3.761-4.531a.584.584 0 0 1-.051-.098c.379-.504 1.73-2.234 6.52-8.371A12.078 12.078 0 0 0 21.065.64l.079-.282-.438-.32-3.035 1.758-6.457 7.715L4.69 1.719 1.898.12 1.656 0 1.22.36l.078.28c.398 1.477 1.078 2.833 1.957 4.07l6.558 8.392a.296.296 0 0 1-.046.078L6 17.71a3.099 3.099 0 0 0-.79-.1 3.204 3.204 0 0 0-3.194 3.195A3.204 3.204 0 0 0 5.21 24a3.204 3.204 0 0 0 3.195-3.195c0-.63-.187-1.22-.504-1.715l3.282-4.235 3.316 4.239a3.173 3.173 0 0 0-.504 1.71A3.204 3.204 0 0 0 17.191 24a3.2 3.2 0 0 0 2.82-1.703 2.782 2.782 0 0 0 2.372 1.305.4.4 0 0 0 .398-.399c0-.242-.16-.402-.398-.402zM18.19 2.396l1.836-1.036a11.018 11.018 0 0 1-1.52 2.875c-.038.04-3.952 5.032-5.75 7.387a.454.454 0 0 0-.015-.07c-.004-.02-.008-.04-.015-.059 0-.012-.004-.02-.008-.031-.004-.012-.008-.027-.016-.04a1.336 1.336 0 0 0-.223-.398l-.75-.894zM2.375 1.359l1.797 1.036L11.84 11.5c.12.2.16.441.039.64A1.328 1.328 0 0 0 12 13.657l3.633 4.356c-.063.035-.13.082-.192.125a2.99 2.99 0 0 0-.351.27l-.055.042L3.895 4.234c-.641-.879-1.16-1.84-1.52-2.875zm2.836 21.844a2.403 2.403 0 0 1-2.395-2.398 2.402 2.402 0 0 1 2.395-2.395c.172 0 .34.02.5.055l.3.105c.13.035.25.082.368.145.18.101.348.226.492.367.078.078.149.16.219.246l.078.098c.277.39.437.867.437 1.379a2.403 2.403 0 0 1-2.394 2.398zm5.473-8.988l-3.301 4.254a3.132 3.132 0 0 0-.598-.438l3.531-4.285.278.352zm6.507 8.988a2.403 2.403 0 0 1-2.394-2.398c0-.512.164-.989.441-1.38l.078-.097c.278-.36.637-.598 1.079-.758l.296-.105c.16-.035.329-.055.5-.055a2.402 2.402 0 0 1 2.395 2.395 2.403 2.403 0 0 1-2.395 2.398zm0 0"/>
</svg>
